icons/svg/phone-classic.svg

﻿<?xml version="1.0" encoding="utf-8"?>
<!DOCTYPE svg PUBLIC "-//W3C//DTD SVG 1.1//EN" "http://www.w3.org/Graphics/SVG/1.1/DTD/svg11.dtd">
<svg xmlns="http://www.w3.org/2000/svg" xmlns:xlink="http://www.w3.org/1999/xlink" version="1.1" baseProfile="full" width="24" height="24" viewBox="0 0 24.00 24.00" enable-background="new 0 0 24.00 24.00" xml:space="preserve">
	<path fill="#000000" fill-opacity="1" stroke-width="1.33333" stroke-linejoin="miter" d="M 11.9941,3.002C 7.45603,3.002 3.33779,4.7811 0.289066,7.6699C 0.10914,7.8499 2.54313e-006,8.099 2.54313e-006,8.3789C 2.54313e-006,8.6588 0.10914,8.9099 0.289066,9.0898L 2.76953,11.5684C 2.94945,11.7483 3.19864,11.8574 3.47852,11.8574C 3.74841,11.8574 3.9978,11.748 4.17773,11.5781C 4.9674,10.8384 5.86829,10.2183 6.83789,9.7285C 7.16775,9.5686 7.39648,9.2299 7.39648,8.8301L 7.39648,5.7305C 8.84587,5.2507 10.3948,5.002 11.9941,5.002C 13.5934,5.002 15.1444,5.2509 16.5938,5.7207L 16.5938,8.8203C 16.5938,9.2102 16.8225,9.5588 17.1523,9.7188C 18.1319,10.2085 19.0227,10.8387 19.8223,11.5684C 20.0023,11.7483 20.2517,11.8477 20.5215,11.8477C 20.8014,11.8477 21.0506,11.7385 21.2305,11.5586L 23.7109,9.0801C 23.8908,8.9002 24,8.649 24,8.3691C 24,8.0893 23.8791,7.8499 23.6992,7.6699C 20.6505,4.7811 16.5322,3.002 11.9941,3.002 Z M 9,7L 9,10C 9,10 3,15 3,18L 3,22L 21,22L 21,18C 21,15 15,10 15,10L 15,7L 13,7L 13,9L 11,9L 11,7L 9,7 Z M 12,12C 14.2091,12 16,13.7909 16,16C 16,18.2091 14.2091,20 12,20C 9.79086,20 8,18.2091 8,16C 8,13.7909 9.79086,12 12,12 Z M 12,13.5C 10.6193,13.5 9.5,14.6193 9.5,16C 9.5,17.3807 10.6193,18.5 12,18.5C 13.3807,18.5 14.5,17.3807 14.5,16C 14.5,14.6193 13.3807,13.5 12,13.5 Z "/>
</svg>

<svg xmlns="http://www.w3.org/2000/svg" version="1.1" baseProfile="full" width="24" height="24" viewBox="0 0 24.00 24.00" xml:space="preserve"><path fill="#000" fill-opacity="1" stroke-width="1.333" stroke-linejoin="miter" d="M11.994 3.002C7.456 3.002 3.338 4.782.29 7.67c-.18.18-.29.43-.29.71 0 .28.11.53.29.71l2.48 2.478c.18.18.43.29.71.29.268 0 .518-.11.698-.28.79-.74 1.69-1.36 2.66-1.85.33-.16.558-.498.558-.898v-3.1c1.45-.48 3-.728 4.598-.728 1.6 0 3.15.25 4.6.72V8.82c0 .39.23.74.558.9.98.49 1.87 1.12 2.67 1.848.18.18.43.28.7.28.28 0 .53-.11.71-.29l2.48-2.478c.18-.18.288-.43.288-.71 0-.28-.12-.52-.3-.7-3.05-2.89-7.168-4.668-11.706-4.668zM9 7v3s-6 5-6 8v4h18v-4c0-3-6-8-6-8V7h-2v2h-2V7H9zm3 5c2.21 0 4 1.79 4 4s-1.79 4-4 4-4-1.79-4-4 1.79-4 4-4zm0 1.5c-1.38 0-2.5 1.12-2.5 2.5s1.12 2.5 2.5 2.5 2.5-1.12 2.5-2.5-1.12-2.5-2.5-2.5z"/></svg>
